!!!COM: Palestrina, Giovanni Perluigi da
!!!OPR: Missa Quinti toni
!!!OMD: Credo
!!!OTL: First Section
**kern	**kern	**kern	**kern	**kern	**kern
*Ibass	*Itenor	*Itenor	*Icalto	*Icant	*Icant
!Bassus	!Tenor 2	!Tenor 1	!Altus	!Cantus 2	!Cantus 1
*clefF4	*clefGv2	*clefGv2	*clefG2	*clefG2	*clefG2
*k[b-]	*k[b-]	*k[b-]	*k[b-]	*k[b-]	*k[b-]
*F:ion	*F:ion	*F:ion	*F:ion	*F:ion	*F:ion
*M4/2	*M4/2	*M4/2	*M4/2	*M4/2	*M4/2
=1	=1	=1	=1	=1	=1
0r	0r	0f	0a	0cc	0ff
=2	=2	=2	=2	=2	=2
0r	0r	1c	1g	1cc	1ee
.	.	1f	1a	1cc	1ff
=3	=3	=3	=3	=3	=3
0r	0r	2B-	2b-	2dd	2ff
.	.	2c	2g	2cc	2ee
.	.	1d	1f	2a	1ff
.	.	.	.	2b	.
=4	=4	=4	=4	=4	=4
1r	1r	1c	1g	1cc	0ee
1c	1e	1r	2r	2r	.
.	.	.	2g	2cc	.
=5	=5	=5	=5	=5	=5
2G	2g	0r	2b	2dd	0r
2G	2g	.	2b	2dd	.
1c	1g	.	1cc	1ee	.
=6	=6	=6	=6	=6	=6
2F	2a	0r	2cc	2ff	0r
2G	2g	.	2b-	2dd	.
1A	2e	.	1a	[1cc	.
.	2f	.	.	.	.
=7	=7	=7	=7	=7	=7
1G	1g	1r	1d	2cc]	1r
.	.	.	.	2b	.
1r	1r	2.d	2.f#	2.dd	2.a
.	.	4d	4f#	4dd	4a
=8	=8	=8	=8	=8	=8
0r	0r	2d	2f#	2dd	2a
.	.	2g	2g	2dd	2b-
.	.	2f	2a	2ff	2cc
.	.	[2B-	[2b-	[2dd	[2ff
=9	=9	=9	=9	=9	=9
0r	0r	2B-]	2b-]	2dd]	2ff]
.	.	2c	2g	2cc	2ee
.	.	2c	1g	1cc	1ee
.	.	2c	.	.	.
=10	=10	=10	=10	=10	=10
1F	1f	1A	1a	1cc	2r
.	.	.	.	.	1ff
1D	1f	[1d	1a	1dd	.
.	.	.	.	.	[2dd
=11	=11	=11	=11	=11	=11
1G	1d	2d]	1g	1b	2dd]
.	.	2G	.	.	2gg
[1C	1c	2.g	1e	[1cc	2gg
.	.	.	.	.	[2ee
.	.	4f	.	.	.
=12	=12	=12	=12	=12	=12
1C]	1.G	1e	1.g	1cc]	4ee]
.	.	.	.	.	4dd
.	.	.	.	.	1cc
2.G	.	1d	.	2.dd	.
.	2G	.	2g	.	2b
4G	.	.	.	4dd	.
=13	=13	=13	=13	=13	=13
1C	2G	1c	2g	1ee	1cc
.	1g	.	1cc	.	.
2.c	.	1r	.	1r	2.ee
.	2a	.	2cc	.	.
4c	.	.	.	.	4ee
=14	=14	=14	=14	=14	=14
2c	2g	0r	2cc	0r	2ee
2d	2f	.	2a	.	2ff
2G	2g	.	2b	.	2dd
2c	2g	.	2cc	.	2ee
=15	=15	=15	=15	=15	=15
1F	1a	1r	1cc	2r	1ff
.	.	.	.	2.ff	.
[1B-	2r	1f	2.b-	.	[1dd
.	.	.	.	4ee	.
.	[2d	.	.	4dd	.
.	.	.	8a	4cc	.
.	.	.	8g	.	.
=16	=16	=16	=16	=16	=16
1B-]	2d]	1d	1f	0b-	1dd]
.	1B-	.	.	.	.
1G	.	2.B-	1g	.	1dd
.	[2G	.	.	.	.
.	.	4A	.	.	.
=17	=17	=17	=17	=17	=17
2.E-	4G]	1G	2.g	1b-	0ee-
.	4A	.	.	.	.
.	1B-	.	.	.	.
4D	.	.	4f	.	.
1C	.	1c	2e-	1cc	.
.	2A	.	2c	.	.
=18	=18	=18	=18	=18	=18
0BB-	1B-	2d	2r	1f	2dd
.	.	2.B-	2.f	.	2.dd
.	1r	.	.	1r	.
.	.	4B-	4f	.	4dd
.	.	2B-	2d	.	2dd
=19	=19	=19	=19	=19	=19
0r	0r	2A	2e	2r	2cc
.	.	2G	2g	2.dd	2b-
.	.	2.d	2.f	.	2a
.	.	.	.	4dd	.
.	.	.	.	2dd	[2ff
.	.	4e	4g	.	.
=20	=20	=20	=20	=20	=20
0r	0r	2f	2a	2cc	2ff]
.	.	2g	1g	2b	4ee
.	.	.	.	.	4dd
.	.	2c	.	4cc	1ee
.	.	.	.	4b-	.
.	.	2c	[2a	4a	.
.	.	.	.	4g	.
=21	=21	=21	=21	=21	=21
0r	0r	0d	2a]	2f	1.dd
.	.	.	1g	2g	.
.	.	.	.	2a	.
.	.	.	2f#	2a	2dd
=22	=22	=22	=22	=22	=22
2r	2r	0r	2g	2b-	1dd
1G	1g	.	1b-	1dd	.
.	.	.	.	.	1r
2G	2g	.	2b-	2dd	.
=23	=23	=23	=23	=23	=23
2B-	2f	0r	2b-	2dd	0r
2B-	2f	.	2b-	2dd	.
1c	1e	.	1g	1cc	.
=24	=24	=24	=24	=24	=24
2A	2e	0r	2a	2cc	0r
1G	1g	.	1b-	1dd	.
2F	2a	.	2cc	2ff	.
=25	=25	=25	=25	=25	=25
2c	2g	0r	2cc	2ee	0r
2d	2f	.	2b	2dd	.
2c	2g	.	2cc	2ee	.
[2F	[2a	.	[2cc	[2ff	.
=26	=26	=26	=26	=26	=26
2F]	2a]	1r	2cc]	2ff]	1r
2G	4g	.	2b-	4ee	.
.	4f	.	.	4dd	.
1A	2e	2r	1a	2cc#	2r
.	2e	2e	.	2cc#	2a
=27	=27	=27	=27	=27	=27
1D	2.d	2f	1r	1dd	2a
.	.	2d	.	.	2dd
.	8c	.	.	.	.
.	8B-	.	.	.	.
2r	1A	1e	2r	2r	1cc#
2A	.	.	2e	2a	.
=28	=28	=28	=28	=28	=28
2d	1r	4d	2f	2a	1dd
.	.	4e	.	.	.
2B-	.	4f	2d	2dd	.
.	.	4g	.	.	.
1A	2r	1a	1e	1cc#	2r
.	2e	.	.	.	2a
=29	=29	=29	=29	=29	=29
1D	2f	1r	2d	1dd	2a
.	2d	.	2f	.	2dd
2r	2e	2r	2g	2r	2cc#
2A	2e	2e	2a	2a	2cc#
=30	=30	=30	=30	=30	=30
2d	1d	2f	2f	2a	1dd
2B-	.	2d	2g	2dd	.
2A	1r	2e	1a	2cc#	2r
2A	.	2e	.	2cc#	[2a
=31	=31	=31	=31	=31	=31
0D	2r	1d	2r	2dd	2a]
.	1d	.	1a	1dd	2a
.	.	1r	.	.	[1ff
.	2d	.	2a	2dd	.
=32	=32	=32	=32	=32	=32
0r	1f	1r	1a	1cc	1ff]
.	2.c	2r	2g	1cc	1ee
.	.	[2A	2a	.	.
.	4d	.	.	.	.
=33	=33	=33	=33	=33	=33
1A	0e	2A]	1cc	1r	2r
.	.	2.c	.	.	1ee
1c	.	.	2.g	1ee	.
.	.	4d	.	.	.
.	.	4e	.	.	[2gg
.	.	4c	4a	.	.
=34	=34	=34	=34	=34	=34
2.G	2r	1d	0b-	1gg	2gg]
.	2g	.	.	.	2.dd
4A	.	.	.	.	.
1B-	2f	1d	.	2dd	.
.	.	.	.	.	4ee
.	2d	.	.	[2dd	2ff
=35	=35	=35	=35	=35	=35
1c	2.e	2r	0g	4dd]	2.ee
.	.	.	.	4cc	.
.	.	2.g	.	1cc	.
.	8d	.	.	.	4ff
.	8c	.	.	.	.
1G	1d	.	.	.	1gg
.	.	4f	.	.	.
.	.	2d	.	2b	.
=36	=36	=36	=36	=36	=36
0C	1c	1e	1g	[0cc	1ee
.	2.c	2.e	2.g	.	1r
.	4c	4e	4g	.	.
=37	=37	=37	=37	=37	=37
0r	2c	2e	2g	1cc]	1r
.	2c	2e	2g	.	.
.	4F	1f	1a	1r	2.cc
.	4G	.	.	.	.
.	4A	.	.	.	.
.	4B-	.	.	.	4cc
=38	=38	=38	=38	=38	=38
0r	2c	2e	2g	0r	2cc
.	2F	1f	1a	.	2cc
.	1r	.	.	.	1dd
.	.	2d	2f	.	.
=39	=39	=39	=39	=39	=39
0r	0r	2e	2g	0r	2cc
.	.	2f	2a	.	1dd
.	.	1g	1b-	.	.
.	.	.	.	.	2b-
=40	=40	=40	=40	=40	=40
0r	0r	2.f	2.a	0r	2cc
.	.	.	.	.	2dd
.	.	8e	4b-	.	.
.	.	8d	.	.	.
.	.	2c	2cc	.	2ee-
.	.	4d	[2b-	.	2dd
.	.	4e	.	.	.
=41	=41	=41	=41	=41	=41
0r	1r	1f	4b-]	2r	1cc
.	.	.	4a	.	.
.	.	.	2a	1ff	.
.	2r	1c	1g	.	[1cc
.	[2c	.	.	2ee	.
=42	=42	=42	=42	=42	=42
1.F	4c]	1r	2r	2ff	1cc]
.	4B-	.	.	.	.
.	4A	.	1a	2ff	.
.	4G	.	.	.	.
.	2F	2r	.	[1cc	1r
2E	2G	[2c	2g	.	.
=43	=43	=43	=43	=43	=43
2F	2A	2c]	2f	1cc]	2r
2F	2F	2A	2a	.	1ff
1C	1G	2c	1g	2.cc	.
.	.	2c	.	.	2ee
.	.	.	.	4b-	.
=44	=44	=44	=44	=44	=44
2.D	2.d	0F	2.f	4a	2ff
.	.	.	.	4g	.
.	.	.	.	2.f	2ff
4E	8c	.	4g	.	.
.	8B-	.	.	.	.
[1F	2.A	.	4a	.	1cc
.	.	.	4b-	4g	.
.	.	.	[2a	4a	.
.	4G	.	.	4b-	.
=45	=45	=45	=45	=45	=45
1F]	1F	2.A	4a]	1a	1.cc
.	.	.	4g	.	.
.	.	.	1f	.	.
.	.	4B-	.	.	.
1C	1G	2c	.	1g	.
.	.	2c	2e	.	2cc
=46	=46	=46	=46	=46	=46
2F	2F	1c	1f	2.a	1cc
2F	2f	.	.	.	.
.	.	.	.	4b-	.
2A	2f	1r	1r	2cc	1r
2B-	2f	.	.	4b-	.
.	.	.	.	4a	.
=47	=47	=47	=47	=47	=47
2.c	2e	2r	0r	1g	2r
.	1g	2c	.	.	2cc
4B-	.	.	.	.	.
1A	.	2e	.	1r	2cc
.	[2f	2f	.	.	2cc
=48	=48	=48	=48	=48	=48
2G	2f]	1g	1r	1r	1b-
2G	2e	.	.	.	.
1F	1f	1c	2r	2r	[1a
.	.	.	2f	2cc	.
=49	=49	=49	=49	=49	=49
0r	0r	2.d	2f	2a	2a]
.	.	.	2f	2b-	4g
.	.	4d	.	.	4f
.	.	[1c	2e	2.cc	2.g
.	.	.	[2g	.	.
.	.	.	.	4b-	4g
=50	=50	=50	=50	=50	=50
0r	0r	0c]	2g]	1a	0cc
.	.	.	1f	.	.
.	.	.	.	2g	.
.	.	.	2e	2g	.
=51	=51	=51	=51	=51	=51
1F	2r	0r	2f	1a	2r
.	2F	.	2a	.	2ff
2D	2A	.	2a	1r	2ff
2D	2B-	.	2d	.	2ff
=52	=52	=52	=52	=52	=52
1C	1c	1r	1g	1r	1ee
4BB-	1d	2r	2b-	1ff	1dd
4C	.	.	.	.	.
4D	.	2F	2b-	.	.
4E	.	.	.	.	.
=53	=53	=53	=53	=53	=53
2F	2r	2A	2a	2ff	2cc
2D	2d	2B-	2f	2ff	2dd
1C	2.e	1c	2r	1ee	2.g
.	.	.	[2g	.	.
.	4f	.	.	.	4a
=54	=54	=54	=54	=54	=54
1G	1g	2B-	4g]	2dd	4b-
.	.	.	4a	.	4cc
.	.	2G	2b-	2dd	4dd
.	.	.	.	.	4b-
2F	2.c	1A	2a	1ff	2.cc
2F	.	.	[2a	.	.
.	8d	.	.	.	4b-
.	8e	.	.	.	.
=55	=55	=55	=55	=55	=55
4F	1f	2F	4a]	1ff	1a
4E	.	.	4g	.	.
4D	.	2f	4f	.	.
4C	.	.	4e	.	.
1BB-	1r	4f	[1d	2r	2ff
.	.	4e	.	.	.
.	.	4d	.	2ff	4ff
.	.	4c	.	.	4ee
=56	=56	=56	=56	=56	=56
0BB-	2f	0B-	1d]	4ff	4dd
.	.	.	.	4ee	4cc
.	4f	.	.	4dd	4b-
.	4e	.	.	4cc	4a
.	4d	.	1d	4b-	4g
.	4c	.	.	4cc	4f
.	2B-	.	.	2dd	2b-
=57	=57	=57	=57	=57	=57
0r	2c	2F	1f	2cc	2a
.	2c	2A	.	2cc	2f
.	2d	1G	1B-	1b-	1g
.	2e	.	.	.	.
=58	=58	=58	=58	=58	=58
0r	1f	1F	0r	1a	1cc
.	1r	1r	.	1r	1r
=59	=59	=59	=59	=59	=59
0F	0c	0A	0f	0r	0cc
=60	=60	=60	=60	=60	=60
1D	1F	1A	1f	0r	1dd
1C	1G	1c	2.e	.	1ee
.	.	.	4d	.	.
=61	=61	=61	=61	=61	=61
1F	1A	2c	4c	0r	1ff
.	.	.	4A	.	.
.	.	1d	2a	.	.
1G	1B	.	2g	.	1dd
.	.	[2G	2g	.	.
=62	=62	=62	=62	=62	=62
0C	1c	2G]	1g	0cc	1ee
.	.	4c	.	.	.
.	.	4d	.	.	.
.	1c	4e	2r	.	1ee
.	.	4f	.	.	.
.	.	2g	2e	.	.
=63	=63	=63	=63	=63	=63
0r	1B	1G	1g	1dd	1dd
.	1c	1g	1e	1ee	1cc
=64	=64	=64	=64	=64	=64
0r	1F	1a	2c	1ff	1cc
.	.	.	2.cc	.	.
.	1G	1g	.	1dd	1gg
.	.	.	8b	.	.
.	.	.	8a	.	.
.	.	.	2b	.	.
=65	=65	=65	=65	=65	=65
1.C	2c	2g	2cc	2ee	2gg
.	1c	1e	1g	1cc	1gg
2C	2c	2e	2g	2cc	2gg
=66	=66	=66	=66	=66	=66
1F	1.c	2f	1a	1cc	1ff
.	.	4c	.	.	.
.	.	4d	.	.	.
1C	.	4e	1g	1cc	1ee
.	.	4f	.	.	.
.	2G	[2g	.	.	.
=67	=67	=67	=67	=67	=67
1D	2.d	4g]	0r	1a	1.dd
.	.	8f#	.	.	.
.	.	8e	.	.	.
.	.	2f#	.	.	.
.	4c	.	.	.	.
1G	2B-	2g	.	1b-	.
.	2G	2g	.	.	2ee
=68	=68	=68	=68	=68	=68
1F	1A	1c	1r	1a	1ff
1F	1c	1f	1a	2r	1cc
.	.	.	.	2ff	.
=69	=69	=69	=69	=69	=69
0BB-	0B-	2.d	2.f	4ff	0dd
.	.	.	.	4ee	.
.	.	.	.	4dd	.
.	.	4e	4e	4cc	.
.	.	2.f	4d	4b-	.
.	.	.	4c	4cc	.
.	.	.	2B-	2dd	.
.	.	4g	.	.	.
=70	=70	=70	=70	=70	=70
0F	0A	2a	0c	2.cc	2ff
.	.	2a	.	.	4f
.	.	.	.	4b-	4g
.	.	2.f	.	1a	4a
.	.	.	.	.	4b-
.	.	.	.	.	[2cc
.	.	4e	.	.	.
=71	=71	=71	=71	=71	=71
1G	1d	1d	2r	1g	2cc]
.	.	.	1g	.	4b
.	.	.	.	.	4a
1G	1G	1d	.	1dd	2b
.	.	.	2g	.	2b
=72	=72	=72	=72	=72	=72
0C	0G	0c	0g	0ee	0cc
*-	*-	*-	*-	*-	*-
!!!CDT: 1525/^1526/-1594/2/2
!!!OCY: Italia
!!!AGN: Mass (Free)
!!!AST: renaissance, vocal
!!!ASW: Motet 1532 (Penet)
!!!PWK: Masses, Book 10
!!!RNB: Cadence finals: C
!!!YOR: Le Opere Complete, v. 27, p. 120
!!!YOO: Rome, Italy: Fratelli Scalera
!!!END: 1992//
!!!EED: John Miller
!!!YEC: Copyright 2000, John Miller
!!!YEN: United States of America
!!!YEM: Rights to all derivative electronic formats reserved.
!!!YEM: Refer to licensing agreement for further details.
!!!YEM: This file must be accompanied by the licensing agreement.
!!!YEM: A copy of the licensing agreement may be found at http://www.music-cog.ohio-state.edu/HumdrumDatabases/Palestrina/license.txt
!!!EMD: converted to Humdrum by Bret Aarden
